icons/website.svg

<svg width="24" height="24" viewBox="0 0 24 24" xmlns="http://www.w3.org/2000/svg">
    <path fill-rule="evenodd"
        d="M6.51999 6.52011C6.9212 6.1189 7.36585 5.76161 7.84628 5.45591C7.2073 6.94703 6.7996 8.76311 6.67549 10.7215H4.35484C4.62479 9.09384 5.40183 7.63827 6.51999 6.52011ZM4.3456 13.2215C4.60672 14.8722 5.38879 16.3487 6.51999 17.4799C6.9212 17.8811 7.36585 18.2384 7.84628 18.5441C7.20111 17.0385 6.79172 15.2016 6.67196 13.2215H4.3456ZM12 22.25C14.8302 22.25 17.3944 21.1014 19.2479 19.2479C21.1014 17.3944 22.25 14.8302 22.25 12C22.25 9.16984 21.1014 6.60562 19.2479 4.7521C17.3944 2.89858 14.8302 1.75 12 1.75C9.17011 1.75 6.60582 2.89874 4.75223 4.75234C2.89879 6.60578 1.75 9.16988 1.75 12C1.75 14.8301 2.89879 17.3942 4.75223 19.2477C6.60582 21.1013 9.17011 22.25 12 22.25ZM16.1547 18.5437C16.7999 17.0382 17.2092 15.2015 17.329 13.2215H19.6544C19.3933 14.8723 18.6113 16.3489 17.4801 17.4801C17.0792 17.8811 16.6348 18.2382 16.1547 18.5437ZM19.6452 10.7215C19.3753 9.09369 18.5983 7.63802 17.4801 6.51987C17.0792 6.11892 16.6348 5.76184 16.1547 5.45628C16.7937 6.94735 17.2014 8.76329 17.3255 10.7215H19.6452ZM12 4.25C11.8835 4.25 11.6924 4.29692 11.4134 4.52901C11.0647 4.81911 10.6945 5.30358 10.3466 6.00232C9.74825 7.20412 9.31751 8.84316 9.18117 10.7215H14.8198C14.6834 8.84308 14.2526 7.20402 13.6542 6.00225C13.3062 5.30359 12.936 4.81919 12.5873 4.52912C12.3082 4.29706 12.1169 4.25 12 4.25ZM13.6542 17.9978C14.2587 16.7838 14.6921 15.1237 14.8238 13.2215H9.17713C9.30883 15.1237 9.74221 16.7837 10.3466 17.9977C10.6945 18.6964 11.0647 19.1809 11.4134 19.471C11.6924 19.7031 11.8835 19.75 12 19.75C12.1169 19.75 12.3082 19.7029 12.5872 19.4709C12.936 19.1808 13.3062 18.6964 13.6542 17.9978Z" />
</svg>

<svg xmlns="http://www.w3.org/2000/svg" width="24" height="24" viewBox="0 0 24 24">
    <path
        d="M6.52 6.52c.401-.401.846-.758 1.326-1.064-.639 1.491-1.046 3.307-1.17 5.266H4.354c.27-1.628 1.047-3.084 2.165-4.202zm-2.174 6.702c.26 1.65 1.043 3.127 2.174 4.258.401.401.846.758 1.326 1.064-.645-1.506-1.054-3.342-1.174-5.322H4.346zM12 22.25c2.83 0 5.394-1.149 7.248-3.002C21.1 17.394 22.25 14.83 22.25 12s-1.149-5.394-3.002-7.248C17.394 2.9 14.83 1.75 12 1.75S6.606 2.899 4.752 4.752C2.9 6.606 1.75 9.17 1.75 12s1.149 5.394 3.002 7.248C6.606 21.1 9.17 22.25 12 22.25zm4.155-3.706c.645-1.506 1.054-3.343 1.174-5.322h2.325c-.26 1.65-1.043 3.127-2.174 4.258-.4.401-.845.758-1.325 1.064zm3.49-7.822c-.27-1.628-1.047-3.084-2.165-4.202-.4-.401-.845-.758-1.325-1.064.639 1.491 1.046 3.307 1.17 5.266h2.32zM12 4.25c-.117 0-.308.047-.587.279-.348.29-.719.775-1.066 1.473-.599 1.202-1.03 2.841-1.166 4.72h5.639c-.137-1.879-.567-3.518-1.166-4.72-.348-.698-.718-1.183-1.067-1.473-.279-.232-.47-.279-.587-.279zm1.654 13.748c.605-1.214 1.038-2.874 1.17-4.777H9.177c.132 1.903.565 3.563 1.17 4.777.348.698.718 1.183 1.066 1.473.28.232.47.279.587.279.117 0 .308-.047.587-.28.349-.29.72-.774 1.067-1.472z" />
</svg>
